X: 11159
T: Dunboyne Straw Plaiters, The
R: reel
M: 4/4
K: Dmajor
|:BcBF A2Bc|dBcA BFFE|FBBF A2Bc|1 d2 (3efg fddc:|2 d2 (3efg fddg||
fddc dfaf|gfed cdeg|fddc dfag|f2eg fddg|
fddc dfaf|gfed cdeg|fgaf gbag|(3fga eg fddc||

